icons/tools.svg

<svg width="128px" height="128px" enable-background="new 0 0 128 128" version="1.1" viewBox="0 0 128 128" xml:space="preserve" xmlns="http://www.w3.org/2000/svg"><g transform="matrix(1.094 0 0 1.094 -6.0162 -6.0156)"><path d="m102.92 116.95 12.807-12.807-62.026-62.026c1.021-2.582 1.596-5.39 1.596-8.332-2e-3 -12.556-10.178-22.731-22.732-22.733h-8e-3l-0.045 1e-3v2e-3c-0.152 3e-3 -0.33 0.017-0.547 0.07-0.181 0.046-0.387 0.119-0.603 0.247-0.325 0.186-0.663 0.521-0.852 0.899-0.197 0.38-0.25 0.756-0.25 1.039 6e-3 0.438 0.102 0.704 0.178 0.913 0.162 0.393 0.318 0.607 0.48 0.836 0.305 0.409 0.654 0.791 1.074 1.226 0.73 0.75 1.667 1.618 2.676 2.522 2.246 2.009 4.853 4.172 6.051 5.158l1.361 11.231-8.104 8.135-11.23-1.388c-0.775-0.939-2.271-2.743-3.846-4.559-1.138-1.311-2.314-2.623-3.314-3.647-0.506-0.516-0.963-0.955-1.396-1.318-0.221-0.184-0.432-0.348-0.697-0.513-0.137-0.08-0.285-0.164-0.494-0.246-0.207-0.079-0.475-0.174-0.91-0.18-0.254-1e-3 -0.576 0.042-0.914 0.19-0.252 0.108-0.504 0.282-0.699 0.485-0.301 0.309-0.467 0.659-0.547 0.938-0.083 0.282-0.098 0.507-0.1 0.69 1e-3 12.56 10.175 22.736 22.733 22.738 2.943 1e-3 5.752-0.573 8.333-1.597z"/><polygon points="111 24.187 118.17 13.94 115.5 11.27 105.26 18.444 70.687 53.014 66.947 49.274 57.01 59.212 43.646 65.643 12.492 96.797 32.645 116.95 63.799 85.796 70.229 72.43 80.166 62.493 76.429 58.755"/></g></svg>

<?xml version="1.0" encoding="UTF-8" standalone="no"?>
<svg
   xmlns:dc="http://purl.org/dc/elements/1.1/"
   xmlns:cc="http://creativecommons.org/ns#"
   xmlns:rdf="http://www.w3.org/1999/02/22-rdf-syntax-ns#"
   xmlns:svg="http://www.w3.org/2000/svg"
   xmlns="http://www.w3.org/2000/svg"
   xmlns:sodipodi="http://sodipodi.sourceforge.net/DTD/sodipodi-0.dtd"
   xmlns:inkscape="http://www.inkscape.org/namespaces/inkscape"
   height="128px"
   id="Layer_1"
   style="enable-background:new 0 0 128 128;"
   version="1.1"
   viewBox="0 0 128 128"
   width="128px"
   xml:space="preserve"
   sodipodi:docname="tools.svg"
   inkscape:version="0.92.3 (2405546, 2018-03-11)"><metadata
     id="metadata945"><rdf:RDF><cc:Work
         rdf:about=""><dc:format>image/svg+xml</dc:format><dc:type
           rdf:resource="http://purl.org/dc/dcmitype/StillImage" /><dc:title></dc:title></cc:Work></rdf:RDF></metadata><defs
     id="defs943" /><sodipodi:namedview
     pagecolor="#ffffff"
     bordercolor="#666666"
     borderopacity="1"
     objecttolerance="10"
     gridtolerance="10"
     guidetolerance="10"
     inkscape:pageopacity="0"
     inkscape:pageshadow="2"
     inkscape:window-width="1920"
     inkscape:window-height="1016"
     id="namedview941"
     showgrid="false"
     inkscape:zoom="3.2148438"
     inkscape:cx="28.602789"
     inkscape:cy="68.598551"
     inkscape:window-x="0"
     inkscape:window-y="27"
     inkscape:window-maximized="1"
     inkscape:current-layer="Layer_1" /><g
     id="g938"
     style="fill:#000000;fill-opacity:1"
     transform="matrix(1.0939945,0,0,1.0939945,-6.016195,-6.015648)"><path
       d="M 102.924,116.949 115.731,104.142 53.705,42.116 c 1.021,-2.582 1.596,-5.39 1.596,-8.332 C 55.299,21.228 45.123,11.053 32.569,11.051 h -0.008 l -0.045,10e-4 v 0.002 c -0.152,0.003 -0.33,0.017 -0.547,0.07 -0.181,0.046 -0.387,0.119 -0.603,0.247 -0.325,0.186 -0.663,0.521 -0.852,0.899 -0.197,0.38 -0.25,0.756 -0.25,1.039 0.006,0.438 0.102,0.704 0.178,0.913 0.162,0.393 0.318,0.607 0.48,0.836 0.305,0.409 0.654,0.791 1.074,1.226 0.73,0.75 1.667,1.618 2.676,2.522 2.246,2.009 4.853,4.172 6.051,5.158 L 42.084,35.195 33.98,43.33 22.75,41.942 C 21.975,41.003 20.479,39.199 18.904,37.383 17.766,36.072 16.59,34.76 15.59,33.736 15.084,33.22 14.627,32.781 14.194,32.418 13.973,32.234 13.762,32.07 13.497,31.905 c -0.137,-0.08 -0.285,-0.164 -0.494,-0.246 -0.207,-0.079 -0.475,-0.174 -0.91,-0.18 -0.254,-10e-4 -0.576,0.042 -0.914,0.19 -0.252,0.108 -0.504,0.282 -0.699,0.485 -0.301,0.309 -0.467,0.659 -0.547,0.938 -0.083,0.282 -0.098,0.507 -0.1,0.69 10e-4,12.56 10.175,22.736 22.733,22.738 2.943,10e-4 5.752,-0.573 8.333,-1.597 z"
       style="fill:#000000;fill-opacity:1"
       id="path934"
       inkscape:connector-curvature="0" /><polygon
       points="110.998,24.187 118.168,13.94 115.496,11.27 105.256,18.444 70.687,53.014 66.947,49.274 57.01,59.212 43.646,65.643 12.492,96.797 32.645,116.949 63.799,85.796 70.229,72.43 80.166,62.493 76.429,58.755 "
       style="fill:#000000;fill-opacity:1"
       id="polygon936" /></g></svg>
